public/svg/flutter.svg

<svg xmlns="http://www.w3.org/2000/svg" width="56" height="56" viewBox="0 0 56 56" fill="none">
<path d="M31.8605 10L14 27.9052L19.5282 33.4472L42.917 10H31.8605Z" fill="#47C5FB"/>
<path d="M31.7359 26.5112L22.1729 36.0982L27.7218 41.7441L33.2398 36.2124L42.9168 26.5112H31.7359Z" fill="#47C5FB"/>
<path d="M27.7217 41.7437L31.9223 45.9548H42.9166L33.2395 36.2119L27.7217 41.7437Z" fill="#00569E"/>
<path d="M22.1104 36.1605L27.6387 30.6184L33.2394 36.2124L27.7215 41.7442L22.1104 36.1605Z" fill="#00B5F8"/>
<path d="M27.7217 41.744L32.3164 40.2155L32.7728 36.6802L27.7217 41.744Z" fill="url(#paint0_linear)" fill-opacity="0.8"/>
<rect width="56" height="56" fill="#C4C4C4" fill-opacity="0.01"/>
<defs>
<linearGradient id="paint0_linear" x1="27.9213" y1="38.0471" x2="31.5574" y2="39.3541" gradientUnits="userSpaceOnUse">
<stop/>
<stop offset="1" stop-opacity="0"/>
</linearGradient>
</defs>
</svg>

<svg xmlns="http://www.w3.org/2000/svg" width="56" height="56" fill="none" xmlns:v="https://vecta.io/nano"><path d="M31.861 10L14 27.905l5.528 5.542L42.917 10H31.861zm-.125 16.511l-9.563 9.587 5.549 5.646 5.518-5.532 9.677-9.701H31.736z" fill="#47c5fb"/><path d="M27.722 41.744l4.201 4.211h10.994l-9.677-9.743-5.518 5.532z" fill="#00569e"/><path d="M22.11 36.161l5.528-5.542 5.601 5.594-5.518 5.532-5.611-5.584z" fill="#00b5f8"/><path d="M27.722 41.744l4.595-1.529.456-3.535-5.051 5.064z" fill="url(#A)" fill-opacity=".8"/><path fill="#c4c4c4" fill-opacity=".01" d="M0 0h56v56H0z"/><defs><linearGradient id="A" x1="27.921" y1="38.047" x2="31.557" y2="39.354" gradientUnits="userSpaceOnUse"><stop/><stop offset="1" stop-opacity="0"/></linearGradient></defs></svg>
